X: 305544
M: 6/8
L: 1/8
K: C
z |\
[ec]Gg [ec]Gg | f2f f2f | eGg eGg | d2d d2d |\
eGg eGg | ^f2f f3 | gdb de^f | g3 g2 :|
|: d |\
g^fg bag | ^f2f f3 | =fef agf | e2e e3 |\
d^cd fed | g2g g3 | def efd | c3 c2 :|
|: G |\
cGe cGe | dGf dGf | edc cBc | d2d d2G |\
cGe cGe | dGf dGf | eca ^fdf | g2g g2 :|
|: z |\
f2f e3 | a2a g3 | fed cdB | c3- c2 :|


